icons/svgs/map-pin-solid.svg

<svg width="24" height="24" viewBox="0 0 24 24" fill="none" xmlns="http://www.w3.org/2000/svg">
<path d="M6.875 7.625C6.875 5.63281 7.92969 3.79688 9.6875 2.78125C11.4062 1.76562 13.5547 1.76562 15.3125 2.78125C17.0312 3.79688 18.125 5.63281 18.125 7.625C18.125 9.65625 17.0312 11.4922 15.3125 12.5078C13.5547 13.5234 11.4062 13.5234 9.6875 12.5078C7.92969 11.4922 6.875 9.65625 6.875 7.625ZM12.5 5.125C12.8125 5.125 13.125 4.85156 13.125 4.5C13.125 4.1875 12.8125 3.875 12.5 3.875C10.4297 3.875 8.75 5.55469 8.75 7.625C8.75 7.97656 9.02344 8.25 9.375 8.25C9.6875 8.25 10 7.97656 10 7.625C10 6.25781 11.0938 5.125 12.5 5.125ZM11.25 20.75V14.4219C11.6406 14.4609 12.0703 14.5 12.5 14.5C12.8906 14.5 13.3203 14.4609 13.75 14.4219V20.75C13.75 21.4531 13.1641 22 12.5 22C11.7969 22 11.25 21.4531 11.25 20.75Z" fill="black"/>
</svg>

<svg xmlns="http://www.w3.org/2000/svg" width="24" height="24" fill="currentColor" class="icon-map-pin-solid" viewBox="0 0 24 24">
  <mask id="a" width="13" height="20" x="6" y="2" maskUnits="userSpaceOnUse" style="mask-type:alpha">
    <path d="M6.875 7.625a5.58 5.58 0 0 1 2.813-4.844c1.718-1.015 3.867-1.015 5.624 0 1.72 1.016 2.813 2.852 2.813 4.844 0 2.031-1.094 3.867-2.812 4.883-1.758 1.015-3.907 1.015-5.626 0a5.6 5.6 0 0 1-2.812-4.883m5.625-2.5a.64.64 0 0 0 .625-.625c0-.312-.312-.625-.625-.625-2.07 0-3.75 1.68-3.75 3.75 0 .352.273.625.625.625A.64.64 0 0 0 10 7.625c0-1.367 1.094-2.5 2.5-2.5M11.25 20.75v-6.328c.39.039.82.078 1.25.078.39 0 .82-.04 1.25-.078v6.328c0 .703-.586 1.25-1.25 1.25-.703 0-1.25-.547-1.25-1.25"/>
  </mask>
  <g mask="url(#a)">
    <path d="M0 0h24v24H0z"/>
  </g>
</svg>
